packages/components/icon/src/assets/icons/location.svg

<svg width="24" height="24" viewBox="0 0 24 24" fill="none" xmlns="http://www.w3.org/2000/svg">
<path fill-rule="evenodd" clip-rule="evenodd" d="M6 8.66219C6 7.63533 6.2531 6.68802 6.7593 5.82025C7.2655 4.95247 7.95609 4.2655 8.83109 3.7593C9.7061 3.2531 10.657 3 11.6839 3C12.7107 3 13.6581 3.2531 14.5258 3.7593C15.3936 4.2655 16.0806 4.95247 16.5868 5.82025C17.093 6.68802 17.3461 7.63533 17.3461 8.66219C17.3461 9.50104 17.1798 10.2748 16.8471 10.9835L12.6167 20.3988C12.4866 20.6736 12.3419 20.8796 12.1829 21.017C12.0238 21.1544 11.8574 21.2231 11.6839 21.2231C11.3078 21.2231 10.9897 20.9483 10.7293 20.3988L6.49897 10.9835C6.16632 10.2748 6 9.50104 6 8.66219ZM11.6839 5.90702C11.1488 5.90702 10.657 6.0408 10.2087 6.30837C9.76033 6.57593 9.40599 6.93388 9.14566 7.38223C8.88533 7.83058 8.75517 8.31508 8.75517 8.83574C8.75517 9.35641 8.88533 9.84091 9.14566 10.2893C9.40599 10.7376 9.76033 11.0956 10.2087 11.3631C10.657 11.6307 11.1488 11.7645 11.6839 11.7645C12.2045 11.7645 12.689 11.6307 13.1374 11.3631C13.5857 11.0956 13.9437 10.7376 14.2113 10.2893C14.4788 9.84091 14.6126 9.35641 14.6126 8.83574C14.6126 8.31508 14.4788 7.83058 14.2113 7.38223C13.9437 6.93388 13.5857 6.57593 13.1374 6.30837C12.689 6.0408 12.2045 5.90702 11.6839 5.90702Z" fill="currentColor"/>
</svg>

<svg viewBox="0 0 24 24" fill="none" xmlns="http://www.w3.org/2000/svg"><path fill-rule="evenodd" clip-rule="evenodd" d="M6 8.662a5.54 5.54 0 0 1 .76-2.842 5.609 5.609 0 0 1 2.07-2.06A5.598 5.598 0 0 1 11.684 3a5.54 5.54 0 0 1 2.842.76 5.633 5.633 0 0 1 2.06 2.06 5.54 5.54 0 0 1 .76 2.842c0 .839-.166 1.613-.499 2.321l-4.23 9.416c-.13.275-.275.48-.434.618a.756.756 0 0 1-.5.206c-.375 0-.693-.275-.954-.824L6.5 10.983a5.394 5.394 0 0 1-.5-2.32Zm5.684-2.755a2.83 2.83 0 0 0-1.475.401 2.967 2.967 0 0 0-1.063 1.074 2.85 2.85 0 0 0-.39 1.454c0 .52.13 1.005.39 1.453.26.449.614.807 1.063 1.074.448.268.94.402 1.475.402.52 0 1.005-.134 1.453-.402a3.055 3.055 0 0 0 1.074-1.074c.268-.448.402-.933.402-1.453s-.134-1.005-.402-1.454a3.056 3.056 0 0 0-1.074-1.074 2.787 2.787 0 0 0-1.453-.401Z" fill="currentColor"/></svg>
